X:7612
T:Tommy McMahon's
O:england
M:4/4
L:1/8
C:Traditional
S:Tommy McMahon
R:R
A:Clare
D:"Clare Concertinas" - Green Linnet re-issue
K:G
ge|:dBBG B2GB|dBGB AGEF|GABd gbab|gedB A2 ge|
dBBG B2GB|dBGB AGEF|GABd gbab|1gedB G2 ge:|2gedB G2 GA|
|:Bdd2 edBd|edgd edBA|Bdef gbab|gedB A2 zd|
Bdd2 edBd|edgd edBA|Bdef gbab|1gedB G2GA:|2gedB G2 z2|


